X:1
T:Fertile Plains, LM
T:Fertile Plains, LM
T:From George Frederick Handel (1685-1759)
T:Public Domain Courtesy of the Cyber Hymnal™
C:From George Frederick Handel (1685-1759)
Z:Public Domain
Z:Courtesy of the Cyber Hymnal™
%%score ( 1 2 ) ( 3 4 )
L:1/8
Q:1/4=112
M:4/4
K:G
V:1 treble 
V:2 treble 
V:3 bass 
V:4 bass 
V:1
 [DG]2 | D2 [GB]2 [FA]2 G2 | [Gc]2 [GB]2 [FA]2 [DG]2 | D2 [GB]2 [FA]2 [EG]2 | %4
 [Gc]2 [FA]2 !fermata!G2 G2 | [Gd]2 [Ge]2 [GB]2 [Gd]2 | c2 [GB]2 [FA]2 [Fd]2 | [Gd]2 c2 Bd GA | %8
 [GB]2 [FA]2 !fermata!G2 |] %9
V:2
 x2 | D2 x2 G2 x2 | x8 | D2 x6 | x4 G2 G2 | x8 | GF x6 | x2 GF G2 G2 | x4 G2 |] %9
V:3
 [G,,B,]2 | [B,,G,]2 [G,,D]2 (DC) [E,B,]2 | [C,E]2 [G,D]2 [D,D]2 [G,,B,]2 | %3
 [G,,B,]2 [G,D]2 [D,D]2 [E,B,]2 | [C,E]2 [D,C]2 !fermata![G,,B,]2 [G,B,]2 | %5
 [G,B,]2 [C,C]2 [G,D]2 [G,B,]2 | A,2 (A,C) [D,D]2 A,2 | [B,,B,]2 [A,,C]2 DB, [E,B,][C,E] | %8
 [D,D]2 [D,C]2 !fermata![G,,B,]2 |] %9
V:4
 x2 | x4 D,2 x2 | x8 | x8 | x8 | x8 | A,2 G,2 x (D,C,) x | x4 G,,2 x2 | x6 |] %9

